src/icons/solid/metrics/formula.svg

<svg width="24" height="24" viewBox="0 0 24 24" fill="none" xmlns="http://www.w3.org/2000/svg">
<g clip-path="url(#clip0_4833_349)">
<path fill-rule="evenodd" clip-rule="evenodd" d="M9.17758 6.37087C9.44428 4.92027 10.6389 3.90246 12.0175 3.90246H12.366C12.6099 3.90246 12.8438 3.80225 13.0163 3.62386C13.1888 3.44547 13.2857 3.20353 13.2857 2.95125C13.2857 2.69897 13.1888 2.45702 13.0163 2.27864C12.8438 2.10025 12.6099 2.00003 12.366 2.00003H12.0166C9.74133 2.00003 7.80269 3.68083 7.37229 6.00941L6.74877 9.2036H4.61792C4.37402 9.2036 4.1401 9.30381 3.96763 9.4822C3.79516 9.66059 3.69827 9.90253 3.69827 10.1548C3.69827 10.4071 3.79516 10.649 3.96763 10.8274C4.1401 11.0058 4.37402 11.106 4.61792 11.106H6.37907L5.10994 17.619L5.10718 17.6285C4.84048 19.0801 3.64677 20.0969 2.2682 20.0969H1.91966C1.67575 20.0969 1.44183 20.1971 1.26936 20.3755C1.09689 20.5539 1 20.7959 1 21.0481C1 21.3004 1.09689 21.5424 1.26936 21.7208C1.44183 21.8991 1.67575 21.9994 1.91966 21.9994H2.2682C4.54343 21.9994 6.48207 20.3186 6.91338 17.9909L8.25516 11.106H10.0154C10.2593 11.106 10.4932 11.0058 10.6657 10.8274C10.8381 10.649 10.935 10.4071 10.935 10.1548C10.935 9.90253 10.8381 9.66059 10.6657 9.4822C10.4932 9.30381 10.2593 9.2036 10.0154 9.2036H8.62486L9.17482 6.38038L9.17758 6.37087ZM13.3317 11.8175C13.4992 11.6381 13.5919 11.3979 13.5898 11.1485C13.5877 10.899 13.491 10.6605 13.3205 10.4841C13.1499 10.3077 12.9193 10.2077 12.6782 10.2055C12.437 10.2034 12.2047 10.2992 12.0313 10.4725C10.8403 11.7043 10.1947 13.7894 10.1947 16.0971C10.1947 18.4047 10.8403 20.4898 12.0313 21.7216C12.2038 21.9 12.4378 22.0001 12.6818 22C12.9257 21.9999 13.1597 21.8996 13.3321 21.7211C13.5046 21.5426 13.6014 21.3006 13.6013 21.0483C13.6012 20.796 13.5042 20.554 13.3317 20.3756C12.607 19.627 12.034 18.1117 12.034 16.0971C12.034 14.0824 12.607 12.5661 13.3307 11.8166L13.3317 11.8175ZM19.8631 10.4725C20.0355 10.2942 20.2694 10.194 20.5133 10.194C20.7571 10.194 20.991 10.2942 21.1634 10.4725C22.3544 11.7043 23 13.7894 23 16.0971C23 18.4047 22.3544 20.4898 21.1634 21.7216C20.9909 21.9 20.7569 22.0001 20.5129 22C20.269 21.9999 20.035 21.8996 19.8626 21.7211C19.6902 21.5426 19.5933 21.3006 19.5934 21.0483C19.5935 20.796 19.6905 20.554 19.8631 20.3756C20.5868 19.627 21.1598 18.1117 21.1598 16.0971C21.1598 14.0824 20.5868 12.5661 19.8631 11.8166C19.6909 11.6382 19.5943 11.3965 19.5943 11.1446C19.5943 10.8926 19.6909 10.6509 19.8631 10.4725ZM15.7044 12.8667C15.5714 12.659 15.3649 12.5136 15.1293 12.4617C14.8938 12.4097 14.6479 12.4555 14.4446 12.589C14.2413 12.7226 14.0967 12.9333 14.042 13.1759C13.9873 13.4185 14.0268 13.6736 14.152 13.8864L15.5076 16.0971L14.1511 18.3067C14.0863 18.4122 14.0423 18.5299 14.0216 18.653C14.0008 18.776 14.0036 18.9022 14.03 19.0241C14.0563 19.146 14.1056 19.2614 14.1751 19.3636C14.2446 19.4659 14.3328 19.5529 14.4348 19.6199C14.5368 19.6868 14.6505 19.7324 14.7695 19.7539C14.8885 19.7753 15.0104 19.7724 15.1283 19.7451C15.3664 19.6901 15.5736 19.5395 15.7044 19.3264L16.5964 17.8711L17.4903 19.3264C17.6233 19.5341 17.8298 19.6796 18.0654 19.7315C18.3009 19.7834 18.5468 19.7377 18.7501 19.6042C18.9534 19.4706 19.098 19.2599 19.1527 19.0173C19.2074 18.7747 19.1679 18.5196 19.0427 18.3067L17.6862 16.0971L19.0427 13.8864C19.1679 13.6736 19.2074 13.4185 19.1527 13.1759C19.098 12.9333 18.9534 12.7226 18.7501 12.589C18.5468 12.4555 18.3009 12.4097 18.0654 12.4617C17.8298 12.5136 17.6233 12.659 17.4903 12.8667L16.5974 14.3221L15.7044 12.8667Z" fill="#3C3B44"/>
</g>
<defs>
<clipPath id="clip0_4833_349">
<rect width="24" height="24" fill="white"/>
</clipPath>
</defs>
</svg>

<svg xmlns="http://www.w3.org/2000/svg" width="24" height="24" fill="none" viewBox="0 0 24 24"><g clip-path="url(#a)"><path fill="currentColor" fill-rule="evenodd" d="M9.178 6.37c.266-1.45 1.46-2.468 2.84-2.468h.348c.244 0 .478-.1.65-.278a.97.97 0 0 0 .27-.673.97.97 0 0 0-.27-.672.9.9 0 0 0-.65-.279h-.35C9.742 2 7.804 3.68 7.373 6.01L6.75 9.203H4.618c-.244 0-.478.1-.65.278a.97.97 0 0 0-.27.673c0 .252.097.494.27.672a.9.9 0 0 0 .65.279h1.761l-1.27 6.513-.002.01c-.267 1.451-1.46 2.468-2.839 2.468H1.92c-.244 0-.478.1-.65.278a.97.97 0 0 0-.27.673c0 .252.097.494.27.673a.9.9 0 0 0 .65.278h.348c2.275 0 4.214-1.68 4.645-4.008l1.342-6.885h1.76a.9.9 0 0 0 .65-.279.97.97 0 0 0 .27-.672.97.97 0 0 0-.27-.673.9.9 0 0 0-.65-.278h-1.39l.55-2.824zm4.154 5.448c.167-.18.26-.42.258-.67a.97.97 0 0 0-.27-.664.9.9 0 0 0-.642-.278.9.9 0 0 0-.647.267c-1.19 1.231-1.836 3.316-1.836 5.624s.645 4.393 1.836 5.625a.9.9 0 0 0 .65.278c.245 0 .479-.1.651-.279a.97.97 0 0 0 .27-.673.97.97 0 0 0-.27-.672c-.725-.749-1.298-2.264-1.298-4.279s.573-3.53 1.297-4.28m6.531-1.345a.9.9 0 0 1 .65-.279c.244 0 .478.1.65.278C22.354 11.705 23 13.79 23 16.098s-.646 4.393-1.837 5.625a.9.9 0 0 1-.65.278.9.9 0 0 1-.65-.279.97.97 0 0 1-.27-.673c0-.252.098-.494.27-.672.724-.749 1.297-2.264 1.297-4.279s-.573-3.53-1.297-4.28a.97.97 0 0 1-.269-.672c0-.252.097-.494.27-.672m-4.159 2.394a.92.92 0 0 0-.575-.405.9.9 0 0 0-.684.127.95.95 0 0 0-.403.587.98.98 0 0 0 .11.71l1.356 2.211-1.357 2.21a.97.97 0 0 0-.121.717.97.97 0 0 0 .405.596.9.9 0 0 0 .693.125.92.92 0 0 0 .576-.419l.892-1.455.894 1.455a.92.92 0 0 0 .575.406.9.9 0 0 0 .685-.128.95.95 0 0 0 .403-.587.98.98 0 0 0-.11-.71l-1.357-2.21 1.357-2.21a.98.98 0 0 0 .11-.711.95.95 0 0 0-.403-.587.9.9 0 0 0-.685-.127.92.92 0 0 0-.575.405l-.893 1.455z" clip-rule="evenodd"/></g><defs><clipPath id="a"><path fill="currentColor" d="M0 0h24v24H0z"/></clipPath></defs></svg>
